svg/u1f635_200d_1f4ab.svg

<svg viewBox="0 0 128 128" xmlns="http://www.w3.org/2000/svg">
  <g>
    <radialGradient id="face_1_" cx="64" cy="-2088.8999" gradientTransform="matrix(1 0 0 -1 0 -2026)" gradientUnits="userSpaceOnUse" r="56.9597">
      <stop offset="0.5" stop-color="#FDE030"/>
      <stop offset="0.9188" stop-color="#F7C02B"/>
      <stop offset="1" stop-color="#F4A223"/>
    </radialGradient>
    <path id="face_18_" d="M64,118.8c-27.9,0-58-17.5-58-55.9S36.1,7,64,7c15.5,0,29.8,5.1,40.4,14.4 C115.9,31.6,122,46,122,62.9s-6.1,31.2-17.6,41.4C93.8,113.6,79.4,118.8,64,118.8z" fill="url(#face_1_)"/>
    <path d="M111.89,29.67c5.33,8.6,8.11,18.84,8.11,30.23c0,16.9-6.1,31.2-17.6,41.4 c-10.6,9.3-25,14.5-40.4,14.5c-18.06,0-37.04-7.35-48.18-22.94C24.58,110.52,44.81,118.8,64,118.8c15.4,0,29.8-5.2,40.4-14.5 C115.9,94.1,122,79.8,122,62.9C122,50.16,118.53,38.84,111.89,29.67z" fill="#EB8F00"/>
    <radialGradient id="face_2_" cx="64" cy="-2088.8999" gradientTransform="matrix(1 0 0 -1 0 -2026)" gradientUnits="userSpaceOnUse" r="56.9597">
      <stop offset="0.5" stop-color="#FDE030"/>
      <stop offset="0.9188" stop-color="#F7C02B"/>
      <stop offset="1" stop-color="#F4A223"/>
    </radialGradient>
    <path id="face_17_" d="M64,118.8c-27.9,0-58-17.5-58-55.9S36.1,7,64,7c15.5,0,29.8,5.1,40.4,14.4 C115.9,31.6,122,46,122,62.9s-6.1,31.2-17.6,41.4C93.8,113.6,79.4,118.8,64,118.8z" fill="url(#face_2_)"/>
    <path d="M111.89,29.67c5.33,8.6,8.11,18.84,8.11,30.23c0,16.9-6.1,31.2-17.6,41.4 c-10.6,9.3-25,14.5-40.4,14.5c-18.06,0-37.04-7.35-48.18-22.94C24.58,110.52,44.81,118.8,64,118.8c15.4,0,29.8-5.2,40.4-14.5 C115.9,94.1,122,79.8,122,62.9C122,50.16,118.53,38.84,111.89,29.67z" fill="#EB8F00"/>
  </g>
  <g id="prop_18_">
    <path d="M38.53,48C38.58,48,38.55,48,38.53,48L38.53,48z" fill="#5F7AFF"/>
    <path d="M95.86,48C95.9,48,95.88,48,95.86,48L95.86,48z" fill="#5F7AFF"/>
  </g>
  <g id="prop_17_">
    <path d="M36.53,48C36.58,48,36.55,48,36.53,48L36.53,48z" fill="#5F7AFF"/>
    <path d="M93.86,48C93.9,48,93.88,48,93.86,48L93.86,48z" fill="#5F7AFF"/>
  </g>
  <g>
    <path d="M82.1,34.68c-8.45,2.31-13.06,9.49-11.62,18.67c0.88,5.66,6.55,16.63,21.59,13.31 c8.97-1.98,13.51-8.51,13.34-17.06c-0.01-0.53-0.35-0.84-0.45-0.86c0,0-0.21,0.2-0.55,1.47c-1.72,6.39-6.21,12.36-14.24,13.25 c-10.05,1.12-15.17-5.86-15.95-10.86c-1.03-6.65,2.35-12.47,8.89-14.26c3.87-1.06,7.63,0.04,10.32,3.02 c1.26,1.4,2.62,3.99,2.16,6.55c-1.27,6.99-7.76,6.89-9.99,5.23c-1.7-1.28-2.3-3.94,1.25-4.81c1.29-0.31,2.4-0.61,2.75-2.32 c0.23-1.09-0.67-2.2-1.64-2.69c-2.14-1.09-4.85-0.08-6.46,1.32c-1.73,1.5-2.45,3.85-1.99,6.44c0.36,2.02,2,4.66,4.83,6.07 c3.49,1.74,12.69,1.53,14.85-7.49c0.99-4.15-0.82-8.44-2.76-10.65C90.96,32.82,83.48,34.3,82.1,34.68z" fill="#422B0D"/>
    <path d="M45.9,66.85c8.45-2.31,13.06-9.49,11.62-18.67c-0.88-5.66-6.55-16.63-21.59-13.31 c-8.97,1.98-13.51,8.51-13.34,17.06c0.01,0.53,0.35,0.84,0.45,0.86c0,0,0.21-0.2,0.55-1.47c1.72-6.39,6.21-12.36,14.24-13.25 c10.05-1.12,15.17,5.86,15.95,10.86c1.03,6.65-2.35,12.47-8.89,14.26c-3.87,1.06-7.63-0.04-10.32-3.02 c-1.26-1.4-2.62-3.99-2.16-6.55c1.27-6.99,7.76-6.89,9.99-5.23c1.7,1.28,2.3,3.94-1.25,4.81c-1.29,0.31-2.4,0.61-2.75,2.32 c-0.23,1.09,0.67,2.2,1.64,2.69c2.14,1.09,4.85,0.08,6.46-1.32c1.73-1.5,2.45-3.85,1.99-6.44c-0.36-2.02-2-4.66-4.83-6.07 c-3.49-1.74-12.69-1.53-14.85,7.49c-0.99,4.15,0.82,8.44,2.76,10.65C37.04,68.7,44.52,67.23,45.9,66.85z" fill="#422B0D"/>
  </g>
  <path d="M99.49,87.26c-1.49-1.72-6.05-4.81-14.33-0.76c-1.84,0.9-2.81,1.92-6.14,1.68 c-2.19-0.15-3.83-1.21-5.71-2.42c-2.39-1.54-5.1-3.26-9.3-3.43c-4.2,0.17-6.91,1.89-9.3,3.43c-1.89,1.22-3.52,2.27-5.71,2.42 c-3.33,0.24-4.39-0.62-6.23-1.52c-8.28-4.05-12.75-1.12-14.24,0.6c-1.33,1.54-0.43,3.18,2.02,1.43c1.51-1.08,4.22-2.45,10.35,1.01 c1.97,1.11,3.83,2.79,8.38,2.47c3.22-0.23,5.45-1.66,7.6-3.05c2.1-1.36,4.11-2.63,7.13-2.79c3.03,0.16,5.03,1.43,7.13,2.79 c2.15,1.39,4.38,2.83,7.6,3.05c4.55,0.32,6.32-1.52,8.29-2.63c6.13-3.46,8.93-1.93,10.44-0.85C99.91,90.44,100.82,88.8,99.49,87.26z " fill="#422B0D"/>
</svg>

<svg viewBox="0 0 128 128" xmlns="http://www.w3.org/2000/svg">
  <defs>
    <radialGradient id="face_1_" cx="64" cy="-62.8999" gradientTransform="matrix(1 0 0 -1 0 0)" gradientUnits="userSpaceOnUse" r="56.9597">
      <stop offset="0.5" stop-color="#FDE030"/>
      <stop offset="0.9188" stop-color="#F7C02B"/>
      <stop offset="1" stop-color="#F4A223"/>
    </radialGradient>
    <radialGradient id="face_2_" cx="64" cy="-62.8999" gradientTransform="matrix(1 0 0 -1 0 0)" gradientUnits="userSpaceOnUse" r="56.9597">
      <stop offset="0.5" stop-color="#FDE030"/>
      <stop offset="0.9188" stop-color="#F7C02B"/>
      <stop offset="1" stop-color="#F4A223"/>
    </radialGradient>
  </defs>
  <path id="face_18_" d="M64,118.8 C36.1,118.8 6,101.3 6,62.9 C6,24.5 36.1,7 64,7 C79.5,7 93.8,12.1 104.4,21.4 C115.9,31.6 122,46 122,62.9 C122,79.8 115.9,94.1 104.4,104.3 C93.8,113.6 79.4,118.8 64,118.8 Z" fill="url(#face_1_)"/>
  <path d="M111.89,29.67 C117.22,38.27 120,48.51 120,59.9 C120,76.8 113.9,91.1 102.4,101.3 C91.8,110.6 77.4,115.8 62,115.8 C43.94,115.8 24.96,108.45 13.82,92.86 C24.58,110.52 44.81,118.8 64,118.8 C79.4,118.8 93.8,113.6 104.4,104.3 C115.9,94.1 122,79.8 122,62.9 C122,50.16 118.53,38.84 111.89,29.67 Z" fill="#EB8F00"/>
  <path id="face_17_" d="M64,118.8 C36.1,118.8 6,101.3 6,62.9 C6,24.5 36.1,7 64,7 C79.5,7 93.8,12.1 104.4,21.4 C115.9,31.6 122,46 122,62.9 C122,79.8 115.9,94.1 104.4,104.3 C93.8,113.6 79.4,118.8 64,118.8 Z" fill="url(#face_2_)"/>
  <path d="M111.89,29.67 C117.22,38.27 120,48.51 120,59.9 C120,76.8 113.9,91.1 102.4,101.3 C91.8,110.6 77.4,115.8 62,115.8 C43.94,115.8 24.96,108.45 13.82,92.86 C24.58,110.52 44.81,118.8 64,118.8 C79.4,118.8 93.8,113.6 104.4,104.3 C115.9,94.1 122,79.8 122,62.9 C122,50.16 118.53,38.84 111.89,29.67 Z" fill="#EB8F00"/>
  <path d="M82.1,34.68 C73.65,36.99 69.04,44.17 70.48,53.35 C71.36,59.01 77.03,69.98 92.07,66.66 C101.04,64.68 105.58,58.15 105.41,49.6 C105.4,49.07 105.06,48.76 104.96,48.74 C104.96,48.74 104.75,48.94 104.41,50.21 C102.69,56.6 98.2,62.57 90.17,63.46 C80.12,64.58 75,57.6 74.22,52.6 C73.19,45.95 76.57,40.13 83.11,38.34 C86.98,37.28 90.74,38.38 93.43,41.36 C94.69,42.76 96.05,45.35 95.59,47.91 C94.32,54.9 87.83,54.8 85.6,53.14 C83.9,51.86 83.3,49.2 86.85,48.33 C88.14,48.02 89.25,47.72 89.6,46.01 C89.83,44.92 88.93,43.81 87.96,43.32 C85.82,42.23 83.11,43.24 81.5,44.64 C79.77,46.14 79.05,48.49 79.51,51.08 C79.87,53.1 81.51,55.74 84.34,57.15 C87.83,58.89 97.03,58.68 99.19,49.66 C100.18,45.51 98.37,41.22 96.43,39.01 C90.96,32.82 83.48,34.3 82.1,34.68 Z" fill="#422B0D"/>
  <path d="M45.9,66.85 C54.35,64.54 58.96,57.36 57.52,48.18 C56.64,42.52 50.97,31.55 35.93,34.87 C26.96,36.85 22.42,43.38 22.59,51.93 C22.6,52.46 22.94,52.77 23.04,52.79 C23.04,52.79 23.25,52.59 23.59,51.32 C25.31,44.93 29.8,38.96 37.83,38.07 C47.88,36.95 53,43.93 53.78,48.93 C54.81,55.58 51.43,61.4 44.89,63.19 C41.02,64.25 37.26,63.15 34.57,60.17 C33.31,58.77 31.95,56.18 32.41,53.62 C33.68,46.63 40.17,46.73 42.4,48.39 C44.1,49.67 44.7,52.33 41.15,53.2 C39.86,53.51 38.75,53.81 38.4,55.52 C38.17,56.61 39.07,57.72 40.04,58.21 C42.18,59.3 44.89,58.29 46.5,56.89 C48.23,55.39 48.95,53.04 48.49,50.45 C48.13,48.43 46.49,45.79 43.66,44.38 C40.17,42.64 30.97,42.85 28.81,51.87 C27.82,56.02 29.63,60.31 31.57,62.52 C37.04,68.7 44.52,67.23 45.9,66.85 Z" fill="#422B0D"/>
  <path d="M99.49,87.26 C98,85.54 93.44,82.45 85.16,86.5 C83.32,87.4 82.35,88.42 79.02,88.18 C76.83,88.03 75.19,86.97 73.31,85.76 C70.92,84.22 68.21,82.5 64.01,82.33 C59.81,82.5 57.1,84.22 54.71,85.76 C52.82,86.98 51.19,88.03 49,88.18 C45.67,88.42 44.61,87.56 42.77,86.66 C34.49,82.61 30.02,85.54 28.53,87.26 C27.2,88.8 28.1,90.44 30.55,88.69 C32.06,87.61 34.77,86.24 40.9,89.7 C42.87,90.81 44.73,92.49 49.28,92.17 C52.5,91.94 54.73,90.51 56.88,89.12 C58.98,87.76 60.99,86.49 64.01,86.33 C67.04,86.49 69.04,87.76 71.14,89.12 C73.29,90.51 75.52,91.95 78.74,92.17 C83.29,92.49 85.06,90.65 87.03,89.54 C93.16,86.08 95.96,87.61 97.47,88.69 C99.91,90.44 100.82,88.8 99.49,87.26 Z" fill="#422B0D"/>
</svg>
